X:183
T:Untitled. HA.182
M:3/4
L:1/8
Q:3/4=80
S:Henry Atkinson’s original MS,Hartburn,N’umberland,1694.
O:England
A:Hartburn,Northumberland
N:Two notes in MS are marked with fermata sign (upside down)
N:and may therefore be extended in length. NB
H:1/8
Z:vmp.Neil Brookes, Jan.2004
K:A
“_5 sharps in MS”f4a2|e2 (dcBA)|d2c4|BABcde|
f4a2|e2 (dcBA)|(dc)B3A|A6||
BAGABc|B2E2E2|BAGABc|HB4B2|
edcdef|e2A2A2|edcdef|He6|]

